**kern	**kern
*part1	*part1
*staff2	*staff1
*I"Piano	*
*clefF4	*clefG2
*k[b-]	*k[b-]
=1	=1
8CCL 8C	8d#XL 8f#X 8a
8CJ	8d#J 8f# 8a
4C	4d# 4f# 4a
4C	4d# 4f# 4a
=	=
8CL 8c	8eL 8g 8b-X
8cJ	8eJ 8g 8b-
4c	4e 4g 4b-
4C 4c	4e 4g 4b-
=	=
8BBnL 8Bn	8dL 8f 8a-X
8BJ	8dJ 8f 8a-
4B	4d 4f 4a-
4B	4d 4f 4a-
=	=
8GGL 8G	8BnL 8f 8a-X
8GJ	8fJ 8a-
4G	4e 4g
4G	4B 4d 4f
=	=
8CCL 8C	8eL 8cc
8CJ	8eJ 8cc
4C	4c 4e
4C	4e 4cc
=	=
8CCL 8C	8eL 8cc
8CJ	8eJ 8cc
4C	4c 4e
4C	4e 4cc
=	=
8AAA-XL 8AA-X	8e-XL 8cc
8AA-J	8e-J 8cc
4AA-	4c 4e-
4AA-	4e- 4cc
=	=
*-	*-
!!!system-decoration: {(s1,s2)}
